X: 36847
T: Ships Are Sailing, The
R: reel
M: 4/4
K: Edorian
Beed BcdB|AD (3FED a,D (3FED|~E3F GFGA|Beef gfed|
Beed BcdB|AD (3FED a,D (3FED|~E3F GFGA|Beed e3z:|
~g3a bgeg|~f3g afdf|gfga bgeg|fedf e2 ef|
gfga bgeg|fefg afdf|g2bg f2af|edef gfed:|

